germany/municipalities/07141103.svg

<?xml version="1.0" encoding="UTF-8" standalone="no"?>
<!-- Created with Inkscape (http://www.inkscape.org/) -->

<svg
   xmlns:dc="http://purl.org/dc/elements/1.1/"
   xmlns:cc="http://creativecommons.org/ns#"
   xmlns:rdf="http://www.w3.org/1999/02/22-rdf-syntax-ns#"
   xmlns:svg="http://www.w3.org/2000/svg"
   xmlns="http://www.w3.org/2000/svg"
   xmlns:sodipodi="http://sodipodi.sourceforge.net/DTD/sodipodi-0.dtd"
   xmlns:inkscape="http://www.inkscape.org/namespaces/inkscape"
   width="135.86319mm"
   height="158.65758mm"
   viewBox="0 0 135.86319 158.65758"
   version="1.1"
   id="svg865"
   inkscape:version="0.92.5 (2060ec1f9f, 2020-04-08)"
   sodipodi:docname="DEU Obernhof COA.svg">
  <defs
     id="defs859">
    <inkscape:path-effect
       effect="spiro"
       id="path-effect3644"
       is_visible="true" />
    <inkscape:path-effect
       effect="spiro"
       id="path-effect3636"
       is_visible="true" />
    <inkscape:path-effect
       effect="spiro"
       id="path-effect3544"
       is_visible="true" />
    <inkscape:path-effect
       effect="spiro"
       id="path-effect3466"
       is_visible="true" />
    <inkscape:path-effect
       effect="spiro"
       id="path-effect3544-2"
       is_visible="true" />
    <inkscape:path-effect
       effect="spiro"
       id="path-effect3644-8"
       is_visible="true" />
    <inkscape:path-effect
       effect="spiro"
       id="path-effect3644-3"
       is_visible="true" />
    <inkscape:path-effect
       effect="spiro"
       id="path-effect3636-0"
       is_visible="true" />
    <inkscape:path-effect
       effect="spiro"
       id="path-effect1727-0-1"
       is_visible="true" />
    <inkscape:path-effect
       effect="spiro"
       id="path-effect1731-8-3"
       is_visible="true" />
    <inkscape:path-effect
       effect="spiro"
       id="path-effect1727-3"
       is_visible="true" />
    <inkscape:path-effect
       effect="spiro"
       id="path-effect1731-7"
       is_visible="true" />
    <inkscape:path-effect
       effect="spiro"
       id="path-effect841-8"
       is_visible="true" />
  </defs>
  <sodipodi:namedview
     id="base"
     pagecolor="#ffffff"
     bordercolor="#666666"
     borderopacity="1.0"
     inkscape:pageopacity="0.0"
     inkscape:pageshadow="2"
     inkscape:zoom="1.3224365"
     inkscape:cx="256.74933"
     inkscape:cy="299.82535"
     inkscape:document-units="mm"
     inkscape:current-layer="layer1"
     showgrid="false"
     inkscape:window-width="1920"
     inkscape:window-height="1046"
     inkscape:window-x="-11"
     inkscape:window-y="-11"
     inkscape:window-maximized="1"
     fit-margin-top="0"
     fit-margin-left="0"
     fit-margin-right="0"
     fit-margin-bottom="0"
     inkscape:snap-global="true"
     inkscape:snap-midpoints="true"
     inkscape:snap-smooth-nodes="true"
     inkscape:object-paths="true" />
  <metadata
     id="metadata862">
    <rdf:RDF>
      <cc:Work
         rdf:about="">
        <dc:format>image/svg+xml</dc:format>
        <dc:type
           rdf:resource="http://purl.org/dc/dcmitype/StillImage" />
        <dc:title></dc:title>
      </cc:Work>
    </rdf:RDF>
  </metadata>
  <g
     inkscape:label="Ebene 1"
     inkscape:groupmode="layer"
     id="layer1"
     transform="translate(20.567055,170.26029)">
    <path
       style="fill:#0030ff;fill-opacity:1;fill-rule:evenodd;stroke:none;stroke-width:2.11666656;stroke-linecap:round;stroke-linejoin:round;stroke-miterlimit:4;stroke-dasharray:none;stroke-opacity:1"
       inkscape:connector-curvature="0"
       d="m 114.2378,-169.20196 -0.30575,94.538469 c -1.48859,37.540972 -30.899855,61.981429 -66.567511,62.002448 -35.635571,-0.0461 -65.057851,-24.497197 -66.567511,-62.002448 l -0.30575,-94.538469 H 47.36293 Z"
       id="path10563-0-6-2-6-3-8"
       sodipodi:nodetypes="ccccccc" />
    <path
       style="fill:none;fill-rule:evenodd;stroke:#000000;stroke-width:2.11666656;stroke-linecap:round;stroke-linejoin:round;stroke-miterlimit:4;stroke-dasharray:none;stroke-opacity:1"
       inkscape:connector-curvature="0"
       d="m 114.2378,-169.20196 -0.30575,94.538466 c -1.48859,37.540971 -30.899855,61.981429 -66.567512,62.002448 -35.63557,-0.0461 -65.05785,-24.497199 -66.56751,-62.002448 l -0.30575,-94.538466 h 66.87165 z"
       id="path10563-0-6-2-6-3"
       sodipodi:nodetypes="ccccccc" />
    <path
       style="opacity:1;fill:#ffd700;fill-opacity:1;fill-rule:evenodd;stroke:#000000;stroke-width:5.00000006;stroke-linecap:round;stroke-linejoin:round;stroke-miterlimit:4;stroke-dasharray:none;stroke-opacity:1;paint-order:fill markers stroke"
       d="M 301.34766 27.263672 C 301.34766 27.263672 278.99447 38.919723 267.64648 44.402344 C 242.18023 56.706029 216.47046 68.520658 190.51172 79.748047 C 173.82114 86.966831 139.98633 100.32617 139.98633 100.32617 L 139.98633 189.07422 C 139.98633 189.07422 161.8099 168.19294 174.33594 159.90039 C 186.09774 152.11373 212.15039 140.90625 212.15039 140.90625 L 212.15039 237.44727 L 212.15039 349.98828 L 212.15039 560.17188 C 212.15039 560.17188 234.50357 548.51583 245.85156 543.0332 C 271.31782 530.72953 297.02954 518.91489 322.98828 507.6875 C 339.67887 500.46872 373.51172 487.10938 373.51172 487.10938 L 373.51172 398.36133 C 373.51172 398.36133 351.6901 419.24261 339.16406 427.53516 C 327.40226 435.32181 301.34766 446.5293 301.34766 446.5293 L 301.34766 349.98828 L 301.34766 237.44727 L 301.34766 27.263672 z M 107.24609 206.97656 L 82.921875 255.05859 L 29.228516 252.13672 L 58.599609 297.29688 L 29.228516 342.45898 L 82.921875 339.53711 L 107.24609 387.61914 L 131.56836 339.53711 L 185.26172 342.45898 L 155.89062 297.29688 L 185.26172 252.13672 L 131.56836 255.05859 L 107.24609 206.97656 z M 406.25391 206.97656 L 381.93164 255.05859 L 328.23828 252.13672 L 357.60938 297.29688 L 328.23828 342.45898 L 381.93164 339.53711 L 406.25391 387.61914 L 430.57812 339.53711 L 484.26953 342.45898 L 454.90039 297.29688 L 484.26953 252.13672 L 430.57812 255.05859 L 406.25391 206.97656 z "
       transform="matrix(0.26458333,0,0,0.26458333,-20.567055,-170.26029)"
       id="path4517" />
  </g>
</svg>

<svg xmlns="http://www.w3.org/2000/svg" width="513.499" height="599.651" viewBox="0 0 135.863 158.658"><path style="fill:#0030ff;fill-opacity:1;fill-rule:evenodd;stroke:none;stroke-width:2.11666656;stroke-linecap:round;stroke-linejoin:round;stroke-miterlimit:4;stroke-dasharray:none;stroke-opacity:1" d="m114.238-169.202-.306 94.539c-1.489 37.54-30.9 61.98-66.567 62.002-35.636-.046-65.058-24.497-66.568-62.002l-.306-94.539h66.872z" transform="translate(20.567 170.26)"/><path style="fill:none;fill-rule:evenodd;stroke:#000;stroke-width:2.11666656;stroke-linecap:round;stroke-linejoin:round;stroke-miterlimit:4;stroke-dasharray:none;stroke-opacity:1" d="m114.238-169.202-.306 94.539c-1.489 37.54-30.9 61.98-66.567 62.002-35.636-.046-65.058-24.497-66.568-62.002l-.306-94.539h66.872z" transform="translate(20.567 170.26)"/><path style="opacity:1;fill:gold;fill-opacity:1;fill-rule:evenodd;stroke:#000;stroke-width:5.00000006;stroke-linecap:round;stroke-linejoin:round;stroke-miterlimit:4;stroke-dasharray:none;stroke-opacity:1;paint-order:fill markers stroke" d="M301.348 27.264s-22.354 11.656-33.702 17.138c-25.466 12.304-51.176 24.119-77.134 35.346-16.69 7.219-50.526 20.578-50.526 20.578v88.748s21.824-20.881 34.35-29.174c11.762-7.786 37.814-18.994 37.814-18.994V560.172s22.354-11.656 33.702-17.139c25.466-12.303 51.178-24.118 77.136-35.346 16.69-7.218 50.524-20.578 50.524-20.578v-88.748s-21.822 20.882-34.348 29.174c-11.762 7.787-37.816 18.994-37.816 18.994V27.264zM107.246 206.977l-24.324 48.082-53.693-2.922 29.37 45.16-29.37 45.162 53.693-2.922 24.324 48.082 24.322-48.082 53.694 2.922-29.371-45.162 29.37-45.16-53.693 2.922-24.322-48.082zm299.008 0-24.322 48.082-53.694-2.922 29.371 45.16-29.37 45.162 53.693-2.922 24.322 48.082 24.324-48.082 53.692 2.922-29.37-45.162 29.37-45.16-53.692 2.922-24.324-48.082z" transform="scale(.26458)"/></svg>
